assets/svgs/misc-grey/MiscGrey39.svg

<svg xmlns="http://www.w3.org/2000/svg" viewBox="0 0 21 45"><path fill-rule="evenodd" d="M4.5 45h9V22.5h6.68l.82-9h-7.152V9.901c0-1.753 1.169-2.161 1.989-2.161h5.049V.028L13.934 0C6.216 0 4.462 5.751 4.462 9.432V13.5H0v9h4.5V45" clip-rule="evenodd"/></svg>

<svg width="21" height="45" viewBox="0 0 21 45" fill="none" xmlns="http://www.w3.org/2000/svg">
<path fill-rule="evenodd" clip-rule="evenodd" d="M4.5,45 L13.5,45 C13.5,45 13.5,32.577 13.5,22.5 L20.18,22.5 L21,13.5 L13.848,13.5 L13.848,9.901 C13.848,8.148 15.017,7.74 15.837,7.74 C16.657,7.74 20.886,7.74 20.886,7.74 L20.886,0.028 L13.934,0 C6.216,0 4.462,5.751 4.462,9.432 L4.462,13.5 L0,13.5 L0,22.5 L4.5,22.5 C4.5,32.698 4.5,45 4.5,45" id="Fill-1" fill="#1A1919"/>
</svg>
